src/static/stillgamequiz.svg

<svg height="156" viewBox="0 0 156 156" width="156" xmlns="http://www.w3.org/2000/svg"><g fill="none" fill-rule="evenodd"><path d="m0 0h156v156h-156z" fill="#222"/><path d="m92 30h-27v9.0967742h27zm-18 58.6236559h9v-27.2903226h-9zm36.135-30.2551971 6.39-6.3789725c-1.935-2.2910395-4.05-4.4473119-6.345-6.3340502l-6.39 6.3789725c-6.975-5.5703704-15.75-8.8946237-25.29-8.8946237-22.365 0-40.5 18.1037037-40.5 40.4301076 0 22.3264035 18.09 40.4301075 40.5 40.4301075s40.5-18.103704 40.5-40.4301075c0-9.5235365-3.33-18.2833931-8.865-25.2014337zm-31.635 56.5347672c-17.415 0-31.5-14.010476-31.5-31.3333335 0-17.3228572 14.085-31.3333334 31.5-31.3333334s31.5 14.0104762 31.5 31.3333334c0 17.3228575-14.085 31.3333335-31.5 31.3333335z" fill="#fff" fill-rule="nonzero"/></g></svg>

<?xml version="1.0" encoding="UTF-8"?>
<svg width="156px" height="156px" viewBox="0 0 156 156" version="1.1" xmlns="http://www.w3.org/2000/svg" xmlns:xlink="http://www.w3.org/1999/xlink">
    <!-- Generator: Sketch 62 (91390) - https://sketch.com -->
    <title>stillgamequiz</title>
    <desc>Created with Sketch.</desc>
    <g id="stillgamequiz" stroke="none" stroke-width="1" fill="none" fill-rule="evenodd">
        <rect fill="#222222" x="0" y="0" width="156" height="156"></rect>
        <path d="M92,30 L65,30 L65,39.0967742 L92,39.0967742 L92,30 Z M74,88.6236559 L83,88.6236559 L83,61.3333333 L74,61.3333333 L74,88.6236559 Z M110.135,58.3684588 L116.525,51.9894863 C114.59,49.6984468 112.475,47.5421744 110.18,45.6554361 L103.79,52.0344086 C96.815,46.4640382 88.04,43.1397849 78.5,43.1397849 C56.135,43.1397849 38,61.2434886 38,83.5698925 C38,105.896296 56.09,124 78.5,124 C100.91,124 119,105.896296 119,83.5698925 C119,74.046356 115.67,65.2864994 110.135,58.3684588 Z M78.5,114.903226 C61.085,114.903226 47,100.89275 47,83.5698925 C47,66.2470353 61.085,52.2365591 78.5,52.2365591 C95.915,52.2365591 110,66.2470353 110,83.5698925 C110,100.89275 95.915,114.903226 78.5,114.903226 Z" id="Shape" fill="#FFFFFF" fill-rule="nonzero"></path>
    </g>
</svg>
